jvlm/images/clickwp_pos.svg

<?xml version="1.0" ?><svg height="32px" version="1.1" viewBox="0 0 32 32" width="32px" xmlns="http://www.w3.org/2000/svg" xmlns:sketch="http://www.bohemiancoding.com/sketch/ns" xmlns:xlink="http://www.w3.org/1999/xlink"><title/><desc/><defs/><g fill="none" fill-rule="evenodd" id="Page-1" stroke="none" stroke-width="1"><g fill="#000000" id="icon-27-one-finger-click"><path d="M13.1244203,0 L13.1244203,4 L14.1244203,4 L14.1244203,0 L13.1244203,0 L13.1244203,0 Z M19.5269278,2.57686389 L16.418344,5.09414546 L17.0476644,5.87129142 L20.1562482,3.35400985 L19.5269278,2.57686389 L19.5269278,2.57686389 Z M21.5318564,9.3124234 L17.6343761,8.41261918 L17.4094251,9.38698925 L21.3069053,10.2867935 L21.5318564,9.3124234 L21.5318564,9.3124234 Z M5.94193535,10.2867935 L9.83941561,9.38698925 L9.61446455,8.41261918 L5.71698429,9.3124234 L5.94193535,10.2867935 L5.94193535,10.2867935 Z M7.09259245,3.35400985 L10.2011763,5.87129142 L10.8304967,5.09414546 L7.72191284,2.57686389 L7.09259245,3.35400985 L7.09259245,3.35400985 Z M19.6231595,30.9999999 C23.7659915,31 27.1244203,27.4147752 27.1244203,23.5 C27.1244203,23.5 27.1244203,25.8132437 27.1244203,23.5 L27.1244203,19.7491622 L27.1244203,17.5016756 C27.1244203,16.6723231 26.4586231,16 25.6244203,16 C24.7959932,16 24.1244203,16.6711894 24.1244203,17.5016756 L24.1244203,18 L23.1244203,18 L23.1244203,15.5064385 C23.1244203,14.6744555 22.4586231,14 21.6244203,14 C20.7959932,14 20.1244203,14.6715406 20.1244203,15.5064385 L20.1244203,17 L19.1244203,17 L19.1244203,14.5064385 C19.1244203,13.6744555 18.4586231,13 17.6244203,13 C16.7959932,13 16.1244203,13.6715406 16.1244203,14.5064385 L16.1244203,18 L15.1244203,18 L15.1244203,7.50524116 C15.1244203,6.67391942 14.4586231,6 13.6244203,6 C12.7959932,6 12.1244203,6.66712976 12.1244203,7.50524116 L12.1244203,18.7999878 C10.0660207,16.599567 7.35605012,14.1791206 6.24545305,15.2957153 C5.15828327,16.3887562 7.95978233,19.4007216 11.8717958,25.9830936 C13.6344162,28.9488875 15.8647052,30.9995418 19.6231595,30.9999999 L19.6231595,30.9999999 Z M28.1244203,23.5 C28.1244203,28.1944206 24.3188409,32 19.6244203,32.0000003 C16.5115051,32.0000003 13.2262274,30.5474856 10.9652407,26.4282229 C7.70175208,20.4825159 3.52827319,16.5832077 5.51553361,14.5959473 C6.9371827,13.1742982 9.16926196,14.5381668 11.1244203,16.3667868 L11.1244203,16.3667868 L11.1244203,7.50840855 C11.1244203,6.11541748 12.2437085,5 13.6244203,5 C15.0147583,5 16.1244203,6.12305276 16.1244203,7.50840855 L16.1244203,12.4983653 C16.5422506,12.1853054 17.0616174,12 17.6244203,12 C18.7069384,12 19.6193054,12.6774672 19.9702378,13.6281239 C20.4110134,13.2379894 20.9901312,13 21.6244203,13 C23.0147583,13 24.1244203,14.1182256 24.1244203,15.4976267 L24.1244203,15.5110883 C24.5422506,15.1985158 25.0616174,15.014191 25.6244203,15.014191 C27.0147583,15.014191 28.1244203,16.1335355 28.1244203,17.5143168 L28.1244203,23.5 L28.1244203,23.5 Z" id="one-finger-click"/></g></g></svg>

<?xml version="1.0" encoding="utf-8"?>
<!-- Generator: Adobe Illustrator 16.0.0, SVG Export Plug-In . SVG Version: 6.00 Build 0)  -->
<!DOCTYPE svg PUBLIC "-//W3C//DTD SVG 1.1//EN" "http://www.w3.org/Graphics/SVG/1.1/DTD/svg11.dtd">
<svg version="1.1" id="Calque_1" xmlns:sketch="http://www.bohemiancoding.com/sketch/ns"
	 xmlns="http://www.w3.org/2000/svg" xmlns:xlink="http://www.w3.org/1999/xlink" x="0px" y="0px" width="32px" height="32px"
	 viewBox="0 0 32 32" enable-background="new 0 0 32 32" xml:space="preserve">
<title></title>
<desc></desc>
<g id="Page-1">
	<g id="icon-27-one-finger-click">
		<path id="one-finger-click" fill="#FFFFFF" stroke="#000000" stroke-width="0.25" stroke-miterlimit="10" d="M13.125,0v4h1V0
			H13.125L13.125,0z M19.527,2.577l-3.109,2.518l0.629,0.777l3.108-2.517L19.527,2.577L19.527,2.577z M21.531,9.313l-3.896-0.9
			L17.41,9.387l3.896,0.9L21.531,9.313L21.531,9.313z M5.942,10.287l3.897-0.9L9.614,8.413l-3.897,0.9L5.942,10.287L5.942,10.287z
			 M7.093,3.354l3.108,2.517l0.629-0.777L7.722,2.577L7.093,3.354L7.093,3.354z M19.623,31c4.143,0,7.502-3.585,7.502-7.5
			c0,0,0,2.313,0,0v-3.751v-2.247c0-0.83-0.666-1.502-1.5-1.502c-0.829,0-1.5,0.672-1.5,1.502V18h-1v-2.494
			c0-0.832-0.666-1.506-1.5-1.506c-0.829,0-1.5,0.671-1.5,1.506V17h-1v-2.494c0-0.832-0.666-1.506-1.5-1.506
			c-0.829,0-1.5,0.671-1.5,1.506V18h-1V7.505c0-0.832-0.666-1.505-1.5-1.505c-0.829,0-1.5,0.667-1.5,1.505V18.8
			c-2.059-2.2-4.769-4.621-5.879-3.504C5.158,16.389,7.96,19.4,11.872,25.982C13.634,28.949,15.865,31,19.623,31L19.623,31z
			 M28.125,23.5c0,4.694-3.807,8.5-8.5,8.5c-3.113,0-6.399-1.453-8.66-5.572c-3.264-5.945-7.437-9.845-5.45-11.832
			c1.421-1.421,3.654-0.058,5.609,1.771l0,0V7.508c0-1.393,1.119-2.508,2.5-2.508c1.39,0,2.5,1.123,2.5,2.508v4.99
			c0.418-0.313,0.937-0.499,1.5-0.499c1.082,0,1.994,0.678,2.346,1.628c0.44-0.39,1.02-0.628,1.654-0.628
			c1.39,0,2.5,1.118,2.5,2.498v0.014c0.418-0.313,0.937-0.497,1.5-0.497c1.39,0,2.5,1.12,2.5,2.5V23.5L28.125,23.5z"/>
	</g>
</g>
</svg>
